X:1
T:Building for Eternity
T:Building for Eternity
T:Daniel Webster Crist
T:Arthur D. Kennedy, 1892
T:Public Domain Courtesy of the Cyber Hymnal™
T:Public Domain Courtesy of the Cyber Hymnal™
C:Daniel Webster Crist
Z:Public Domain
Z:Courtesy of the Cyber Hymnal™
%%score ( 1 2 ) 3
L:1/8
Q:1/4=97
M:4/4
K:Eb
V:1 treble 
V:2 treble 
V:3 bass 
V:1
 E[EF] | [EG]2 [EG][EG] [EG][DF][EG][FA] | [GB]3 [FA] [EG]2 z2 | [DF][DF][DF][EG] [FA]3 [DF] | %4
w: 1.~Thought by|thought we are build- ing for e-|ter- ni- ty,|Stub- ble, wood or hay, of|
w: 2.~Act by|act we are build- ing for e-|ter- ni- ty,|Sil- ver, pre- cious stones, or|
w: 3.~Deed by|deed we are build- ing for e-|ter- ni- ty,|On the firm found- a- tion,|
 [EG][EG][EG][FA] [GB]2 E[EF] | [EG]2 [EG][EG] [EG][DF][EG][FA] | [GB]3 [FA] [EG]2 z2 | %7
w: stub- ble, wood, or hay; Thought by|thought we are build- ing for e-|ter- ni- ty,|
w: of the pur- est gold; Act by|act we are build- ing for e-|ter- ni- ty,|
w: Christ the sol- id rock; Deed by|deed we are build- ing for e-|ter- ni- ty,|
 [DF][DF][DF][EG] [FA]3 [FA] | [EG][EG][EG][DF] !fermata!E2 ||"^Refrain" [GB][GB] | %10
w: Struc- tures that will fall or|stand in that great day.||
w: Lives that will gain en- trance|to the heav’n- ly fold.|We are|
w: Ev- er- last- ing hope be-|yond earth’s storm and shock.||
 [Ac][Ac][Ac][Ac] [Ac]2 [EA][Ac] | [GB][GB][GB][GB] [GB]2 [EG][GB] | [FA]2 [FA]2 [FA][FA][GB][FA] | %13
w: |||
w: build- ing on the rock, We are|build- ing on the rock, On the|rock of ag- es, Christ our|
w: |||
 [EG]2 [FA]2 [GB]2 [GB][GB] | [Ac][Ac][Ac][Ac] [Ac]2 [EA][Ac] | [GB][GB][GB][GB] [GB]2 [EG][GB] | %16
w: |||
w: on- ly hope; Firm- ly|build- ing on the rock, Firm- ly|build- ing on the rock, On the|
w: |||
 [FA]2 [EG]2 [DF][Ac][GB][FA] | [EG]2 [DF]2 !fermata!E2 |] %18
w: ||
w: rock of ag- es, Christ our|on- ly hope.|
w: ||
V:2
 E x | x8 | x8 | x8 | x6 E x | x8 | x8 | x8 | x4 E2 || x2 | x8 | x8 | x8 | x8 | x8 | x8 | x8 | %17
 x4 E2 |] %18
V:3
 [E,G,][E,A,] | [E,B,]2 [E,B,][E,B,] [E,B,][A,B,][G,B,][F,B,] | [E,E]3 [E,B,] [E,B,]2 z2 | %3
 [B,,B,][B,,B,][B,,B,][B,,B,] [B,,B,]3 [B,,B,] | [E,B,][E,B,][E,B,][E,B,] [E,E]2 [E,G,][E,A,] | %5
 [E,B,]2 [E,B,][E,B,] [E,B,][A,B,][G,B,][F,B,] | [E,E]3 [E,B,] [E,B,]2 z2 | %7
 [B,,B,][B,,B,][B,,B,][B,,B,] [B,,B,]3 [B,,B,] | [B,,B,][B,,B,][B,,B,][B,,A,] !fermata![E,G,]2 || %9
 [E,E][E,E] | [A,E][A,E][A,E][A,E] [A,E]2 [A,C][A,E] | [E,E][E,E][E,E][E,E] [E,E]2 [E,B,][E,B,] | %12
 [B,,B,]2 [B,,B,]2 [B,,B,][B,,B,][B,,B,][B,,B,] | [E,B,]2 [E,B,]2 [E,E]2 [E,E][E,E] | %14
 [A,E][A,E][A,E][A,E] [A,E]2 [A,C][A,E] | [E,E][E,E][E,E][E,E] [E,E]2 [E,B,][E,B,] | %16
 [B,,B,]2 [B,,B,]2 [B,,B,][B,,B,][B,,B,][B,,B,] | [B,,B,]2 [B,,A,]2 !fermata![E,G,]2 |] %18

